!!!OTL: Der Benzenauer. (1504.)
!!!ARE: Europa, Mitteleuropa, Deutschland
!!!SCT: A0381A
!!!TXL: @@GMH
!!!YEM: Copyright 1995, estate of Helmut Schaffrath.
**kern	**text
!! Mixed meters:  4/2; 6/2
*M4/2	*
*met(c|)	*
*clefC4	*
*k[b-]	*
*F:ion	*
!LO:TX:a:t=jon. F.	!
2ryy	.
{2F	Nun
=1	=1
2c	wend
2c	ir
2d	hö-
2e	-ren
=2	=2
*M6/2	*
1f	ſin-
1f}	-gen
{1f	ie-
=3	=3
2c	-tʒund
1f	ein
2e	nüw
1d	ge-
=4	=4
*M4/2	*
1c	-dicht,}
2r}	.
{2F	Von
=5	=5
2c	nüw
2c	ge-
2d	-ſche-
2e	-hen
=6	=6
*M6/2	*
1f	din-
1f}	-gen,
{1f	wie
=7	=7
2c	es
1f	er-
2e	-gan-
1d	-gen
=8	=8
*M4/2	*
1c	iſt,}
2r}	.
{2f	Vil
=9	=9
2.f	büch-
4e	-ſen
2d	vnd
2c	kar-
=10	=10
*M6/2	*
1A	-tau-
1F	-nen,
2r}	.
{2F	ſach
=11	=11
*lig	*
2.c	man
4d	.
*Xlig	*
2e	im
2f	vel-
1d	-de
=12	=12
*M4/2	*
1c	ſtan,
2r}	.
{2f	gen
=13	=13
2.f	Kopfſtein
4e	.
2d	an
2c	die
=14	=14
*M6/2	*
1A	mau-
1F}	-ren
{1c	ließ
=15	=15
2d	man
*lig	*
2.c	ſie
4A	-
*Xlig	*
2B-	all
1G	ab-
=16	=16
0F/ll}	-gan.
==	==
!!!GTL: Einige historisch-politische Lieder
!!!AGN: Romanze, Ballade, Lied, Personenlied
!! Nuernberg um 1530
!!!ONB: ESAC (Essen Associative Code) Database: ALTDEU
!!!AMT: irregular
!!!AIN: vox
!!!EED: Helmut Schaffrath
!!!EEV: 1.0
!!!RDF**kern: l = terminal long
!!!AMD: Ionian
!!!URL-scan: https://rosdok.uni-rostock.de/mcrviewer/recordIdentifier/rosdok_ppn738218359/iview2/phys_0541.iview2?x=-948.0634874302073&y=670.5628857216798&scale=0.3669911794666851&rotation=0&layout=singlePageLayout&logicalDiv=log_0014
!!!ENC: Anna Maria Matuszewska
!!!EEV: 2024/14/03
*-	*-
